build/img/icon/cog.svg

<svg xmlns="http://www.w3.org/2000/svg" preserveAspectRatio="xMidYMid" width="46" height="46" viewBox="0 0 46 46"><defs><style>.cls-2 { fill: #e8663c; }</style></defs><path d="M45.988 25.932v-5.885l-4.915-.393c-.178-.97-.43-1.91-.752-2.82l4.06-2.796-2.944-5.096-4.456 2.118c-.633-.74-1.32-1.43-2.06-2.06l2.117-4.457L31.94 1.6l-2.796 4.058c-.91-.323-1.852-.574-2.82-.752L25.93-.01h-5.884l-.393 4.916c-.97.178-1.91.43-2.82.752L14.035 1.6 8.94 4.544 11.058 9c-.74.63-1.43 1.32-2.062 2.06L4.54 8.943 1.6 14.038l4.056 2.796c-.323.91-.574 1.852-.752 2.82l-4.916.394v5.884l4.916.394c.178.968.43 1.91.752 2.82L1.6 31.943l2.942 5.094 4.454-2.116c.633.74 1.322 1.43 2.063 2.062l-2.12 4.456 5.097 2.94 2.796-4.055c.91.322 1.85.574 2.82.752l.393 4.915h5.885l.394-4.915c.97-.178 1.91-.43 2.82-.753l2.797 4.057 5.097-2.942-2.118-4.457c.74-.63 1.428-1.32 2.06-2.06l4.456 2.117 2.943-5.095-4.06-2.796c.324-.91.575-1.852.753-2.82l4.915-.394zm-23 8.558c-6.35 0-11.5-5.15-11.5-11.5 0-6.352 5.15-11.5 11.5-11.5 6.352 0 11.5 5.148 11.5 11.5 0 6.35-5.148 11.5-11.5 11.5z" id="path-1" class="cls-2" fill-rule="evenodd"/></svg>

<svg xmlns="http://www.w3.org/2000/svg" xmlns:xlink="http://www.w3.org/1999/xlink" preserveAspectRatio="xMidYMid" width="46" height="46" viewBox="0 0 46 46">
  <defs>
    <style>

      .cls-2 {
        fill: #e8663c;
      }
    </style>
  </defs>
  <path d="M45.988,25.932 C45.988,25.932 45.988,20.047 45.988,20.047 C45.988,20.047 41.073,19.654 41.073,19.654 C40.895,18.685 40.644,17.744 40.321,16.834 C40.321,16.834 44.379,14.038 44.379,14.038 C44.379,14.038 41.436,8.942 41.436,8.942 C41.436,8.942 36.980,11.060 36.980,11.060 C36.347,10.319 35.659,9.631 34.919,8.999 C34.919,8.999 37.037,4.543 37.037,4.543 C37.037,4.543 31.941,1.600 31.941,1.600 C31.941,1.600 29.144,5.658 29.144,5.658 C28.235,5.335 27.292,5.084 26.324,4.906 C26.324,4.906 25.930,-0.009 25.930,-0.009 C25.930,-0.009 20.046,-0.009 20.046,-0.009 C20.046,-0.009 19.653,4.906 19.653,4.906 C18.684,5.084 17.742,5.335 16.832,5.658 C16.832,5.658 14.036,1.601 14.036,1.601 C14.036,1.601 8.940,4.543 8.940,4.543 C8.940,4.543 11.058,8.999 11.058,8.999 C10.317,9.631 9.628,10.319 8.996,11.060 C8.996,11.060 4.541,8.943 4.541,8.943 C4.541,8.943 1.599,14.038 1.599,14.038 C1.599,14.038 5.656,16.834 5.656,16.834 C5.333,17.744 5.082,18.686 4.904,19.655 C4.904,19.655 -0.012,20.048 -0.012,20.048 C-0.012,20.048 -0.011,25.932 -0.011,25.932 C-0.011,25.932 4.904,26.326 4.904,26.326 C5.082,27.294 5.333,28.237 5.656,29.146 C5.656,29.146 1.600,31.943 1.600,31.943 C1.600,31.943 4.542,37.037 4.542,37.037 C4.542,37.037 8.996,34.921 8.996,34.921 C9.629,35.661 10.318,36.350 11.059,36.982 C11.059,36.982 8.941,41.438 8.941,41.438 C8.941,41.438 14.037,44.379 14.037,44.379 C14.037,44.379 16.833,40.323 16.833,40.323 C17.742,40.645 18.684,40.897 19.653,41.075 C19.653,41.075 20.046,45.990 20.046,45.990 C20.046,45.990 25.931,45.990 25.931,45.990 C25.931,45.990 26.324,41.075 26.324,41.075 C27.293,40.897 28.235,40.645 29.144,40.322 C29.144,40.322 31.941,44.379 31.941,44.379 C31.941,44.379 37.037,41.438 37.037,41.438 C37.037,41.438 34.919,36.981 34.919,36.981 C35.659,36.349 36.348,35.661 36.980,34.920 C36.980,34.920 41.436,37.037 41.436,37.037 C41.436,37.037 44.379,31.942 44.379,31.942 C44.379,31.942 40.321,29.146 40.321,29.146 C40.644,28.236 40.895,27.294 41.073,26.326 C41.073,26.326 45.988,25.932 45.988,25.932 ZM22.988,34.490 C16.637,34.490 11.488,29.341 11.488,22.990 C11.488,16.638 16.637,11.490 22.988,11.490 C29.340,11.490 34.488,16.638 34.488,22.990 C34.488,29.341 29.340,34.490 22.988,34.490 Z" id="path-1" class="cls-2" fill-rule="evenodd"/>
</svg>
